svgs/regular/lamp-desk.svg

<svg xmlns="http://www.w3.org/2000/svg" viewBox="0 0 512 512"><!-- Font Awesome Pro 6.0.0-alpha2 by @fontawesome - https://fontawesome.com License - https://fontawesome.com/license (Commercial License) --><path d="M392.652 278.572C402.228 285.023 413.193 288.188 424.093 288.188C445.422 288.188 480.03 271.713 480.03 232.301C480.03 221.411 476.862 210.456 470.406 200.889L392.652 278.572ZM512.001 99.623C512.001 80.521 496.539 64.379 476.781 64.379H391.777L355.9 28.535C337.307 9.678 312.577 -0.001 287.7 -0.001C268.087 -0.001 248.382 6.015 231.52 18.293C205.945 36.771 192.028 65.845 192.028 95.605C192.028 110.5 195.514 125.568 202.77 139.564L103.016 239.23C98.463 243.779 95.982 249.912 95.982 256.197C95.982 258.37 96.278 260.561 96.889 262.711L154.518 464H24C10.746 464 0 474.744 0 488C0 501.254 10.746 512 24 512H360C373.254 512 384 501.254 384 488C384 474.744 373.254 464 360 464H204.395L147.018 263.211L233.145 177.158L256.021 200.014V284.941C256.021 304.532 272.007 320.13 291.298 320.13C300.459 320.13 309.473 316.549 316.148 309.797L501.656 124.453C508.416 117.783 512.001 108.776 512.001 99.623ZM304.023 254.094V180.156L254.146 130.322C245.037 120.973 240.505 108.892 240.505 96.833C240.505 59.306 274.908 48.938 288.489 48.938C300.574 48.938 312.666 53.466 322.023 62.506L371.902 112.338H445.904L304.023 254.094Z "></path></svg>

<svg xmlns="http://www.w3.org/2000/svg" viewBox="0 0 512 512"><!--! Font Awesome Pro 6.0.0-alpha3 by @fontawesome - https://fontawesome.com License - https://fontawesome.com/license (Commercial License) --><path d="M392.7 278.6c9.576 6.45 20.54 9.616 31.44 9.616c21.33 0 55.94-16.48 55.94-55.89c0-10.89-3.168-21.84-9.623-31.41L392.7 278.6zM512 99.62c0-19.1-15.46-35.24-35.22-35.24H391.8l-35.88-35.84c-18.59-18.86-43.32-28.54-68.2-28.54c-19.61 0-39.32 6.016-56.18 18.29C205.9 36.77 192 65.84 192 95.61c0 14.9 3.486 29.96 10.74 43.96l-99.75 99.67C98.46 243.8 95.98 249.9 95.98 256.2c0 2.173 .2967 4.364 .9069 6.514L154.5 464H24C10.75 464 0 474.7 0 488C0 501.3 10.75 512 24 512h336c13.25 0 24-10.75 24-24c0-13.26-10.75-24-24-24H204.4L147 263.2l86.13-86.05l22.88 22.86v84.93c0 19.59 15.99 35.19 35.28 35.19c9.161 0 18.18-3.581 24.85-10.33l185.5-185.3C508.4 117.8 512 108.8 512 99.62zM304 254.1V180.2l-49.88-49.83c-9.11-9.349-13.64-21.43-13.64-33.49c0-37.53 34.4-47.89 47.98-47.89c12.08 0 24.18 4.528 33.53 13.57l49.88 49.83h74L304 254.1z"/></svg>
